archdroid-icon-theme/Archdroid-Amber/devices/scalable/uninterruptible-power-supply.svg

<svg fill="#FFC107" height="48" viewBox="0 0 48 48" width="48" xmlns="http://www.w3.org/2000/svg"><path d="m18 4c-2.216 0-4 1.784-4 4v32c0 2.216 1.784 4 4 4h12c2.216 0 4-1.784 4-4v-32c0-2.216-1.784-4-4-4zm8 7v11h4l-8 15v-11h-4z" fill="#FFC107" stroke-width="3"/></svg>

<svg fill="#FFC107" height="48" version="1.1" viewBox="0 0 48 48" width="48" xmlns="http://www.w3.org/2000/svg"><path d="M18 4C15.784 4 14 5.784 14 8L14 40C14 42.216 15.784 44 18 44L30 44C32.216 44 34 42.216 34 40L34 8C34 5.784 32.216 4 30 4L18 4zM26 11L26 22 30 22 22 37 22 26 18 26 26 11z" fill="#FFC107" stroke-width="3"/></svg>
